svgs/light/people-roof.svg

<svg xmlns="http://www.w3.org/2000/svg" viewBox="0 0 640 512"><!--! Font Awesome Pro 6.4.2 by @fontawesome - https://fontawesome.com License - https://fontawesome.com/license (Commercial License) Copyright 2023 Fonticons, Inc. --><path d="M328.5 2.5l304 192c7.5 4.7 9.7 14.6 5 22.1s-14.6 9.7-22.1 5L320 34.9 24.5 221.5c-7.5 4.7-17.4 2.5-22.1-5s-2.5-17.4 5-22.1l304-192c5.2-3.3 11.9-3.3 17.1 0zM336 192a16 16 0 1 0 -32 0 16 16 0 1 0 32 0zm-64 0a48 48 0 1 1 96 0 48 48 0 1 1 -96 0zm24 208h48V289.5c-3.8-1-7.7-1.5-11.8-1.5H307.8c-4 0-8 .5-11.8 1.5V400zm122.4-15.6L376 315.5V400c0 17.7-14.3 32-32 32H296c-17.7 0-32-14.3-32-32V315.5l-42.4 68.9c-.2 .3-.3 .5-.5 .8c1.1 1.6 2.2 3.2 3.3 4.9l45.3 73.5c4.6 7.5 2.3 17.4-5.2 22s-17.4 2.3-22-5.2L200 411.5V480c0 17.7-14.3 32-32 32H120c-17.7 0-32-14.3-32-32V411.5L45.6 480.4c-4.6 7.5-14.5 9.9-22 5.2s-9.9-14.5-5.2-22l45.3-73.5C78.2 366.4 104 352 131.8 352h24.5c14.6 0 28.7 4 40.8 11.2l42.5-69.1C254.2 270.4 280 256 307.8 256h24.5c27.8 0 53.6 14.4 68.1 38.1l42.6 69.1c12.2-7.2 26.2-11.2 40.8-11.2h24.5c27.8 0 53.6 14.4 68.1 38.1l45.3 73.5c4.6 7.5 2.3 17.4-5.2 22s-17.4 2.3-22-5.2L552 411.5V480c0 17.7-14.3 32-32 32H472c-17.7 0-32-14.3-32-32V411.5l-42.4 68.9c-4.6 7.5-14.5 9.9-22 5.2s-9.9-14.5-5.2-22l45.3-73.5c1-1.7 2.1-3.3 3.3-4.9c-.2-.3-.4-.5-.5-.8zM144 304a16 16 0 1 0 0-32 16 16 0 1 0 0 32zm0-64a48 48 0 1 1 0 96 48 48 0 1 1 0-96zM120 385.5V480h48V385.5c-3.8-1-7.7-1.5-11.8-1.5H131.8c-4 0-8 .5-11.8 1.5zM512 288a16 16 0 1 0 -32 0 16 16 0 1 0 32 0zm-64 0a48 48 0 1 1 96 0 48 48 0 1 1 -96 0zm24 192h48V385.5c-3.8-1-7.7-1.5-11.8-1.5H483.8c-4 0-8 .5-11.8 1.5V480z"/></svg>

<svg xmlns="http://www.w3.org/2000/svg" viewBox="0 0 640 512"><!--! Font Awesome Pro 6.1.1 by @fontawesome - https://fontawesome.com License - https://fontawesome.com/license (Commercial License) Copyright 2022 Fonticons, Inc. --><path d="M632.5 194.5C640 199.2 642.2 209.1 637.5 216.5C632.8 224 622.9 226.2 615.5 221.5L320 34.92L24.55 221.5C17.07 226.2 7.193 224 2.474 216.5C-2.244 209.1-.0131 199.2 7.458 194.5L311.5 2.472C316.7-.8241 323.3-.8241 328.5 2.472L632.5 194.5zM368 192C368 218.5 346.5 240 320 240C293.5 240 272 218.5 272 192C272 165.5 293.5 144 320 144C346.5 144 368 165.5 368 192zM320 176C311.2 176 304 183.2 304 192C304 200.8 311.2 208 320 208C328.8 208 336 200.8 336 192C336 183.2 328.8 176 320 176zM418.4 384.4L376 315.5V400C376 417.7 361.7 432 344 432H296C278.3 432 264 417.7 264 400V315.5L221.6 384.4C221.5 384.7 221.3 384.9 221.1 385.2C222.3 386.8 223.3 388.4 224.4 390.1L269.6 463.6C274.3 471.1 271.9 480.1 264.4 485.6C256.9 490.3 247 487.9 242.4 480.4L200 411.5V480C200 497.7 185.7 512 168 512H120C102.3 512 88 497.7 88 480V411.5L45.63 480.4C40.1 487.9 31.14 490.3 23.62 485.6C16.09 480.1 13.75 471.1 18.38 463.6L63.63 390.1C78.19 366.4 103.1 352 131.8 352H156.2C170.9 352 184.9 355.1 197.1 363.2L239.6 294.1C254.2 270.4 279.1 256 307.8 256H332.2C360 256 385.8 270.4 400.4 294.1L442.9 363.2C455.1 355.1 469.2 352 483.8 352H508.2C536 352 561.8 366.4 576.4 390.1L621.6 463.6C626.3 471.1 623.9 480.1 616.4 485.6C608.9 490.3 599 487.9 594.4 480.4L552 411.5V480C552 497.7 537.7 512 520 512H472C454.3 512 440 497.7 440 480V411.5L397.6 480.4C393 487.9 383.1 490.3 375.6 485.6C368.1 480.1 365.7 471.1 370.4 463.6L415.6 390.1C416.7 388.4 417.8 386.8 418.9 385.2C418.7 384.9 418.5 384.7 418.4 384.4H418.4zM344 400V289.5C340.2 288.5 336.3 288 332.2 288H307.8C303.8 288 299.8 288.5 296 289.5V400H344zM120 385.5V480H168V385.5C164.2 384.5 160.3 384 156.2 384H131.8C127.8 384 123.8 384.5 120 385.5V385.5zM520 480V385.5C516.2 384.5 512.3 384 508.2 384H483.8C479.8 384 475.8 384.5 472 385.5V480H520zM96 288C96 261.5 117.5 240 144 240C170.5 240 192 261.5 192 288C192 314.5 170.5 336 144 336C117.5 336 96 314.5 96 288V288zM144 304C152.8 304 160 296.8 160 288C160 279.2 152.8 272 144 272C135.2 272 128 279.2 128 288C128 296.8 135.2 304 144 304zM544 288C544 314.5 522.5 336 496 336C469.5 336 448 314.5 448 288C448 261.5 469.5 240 496 240C522.5 240 544 261.5 544 288zM496 272C487.2 272 480 279.2 480 288C480 296.8 487.2 304 496 304C504.8 304 512 296.8 512 288C512 279.2 504.8 272 496 272V272z"/></svg>
